material/.icons/material/map-plus.svg

<svg xmlns="http://www.w3.org/2000/svg" viewBox="0 0 24 24"><path d="M9 3L3.36 4.9c-.2.07-.36.25-.36.48V20.5a.5.5 0 00.5.5c.05 0 .1 0 .16-.03L9 18.9l4.16 1.46c-.1-.44-.16-.9-.16-1.36 0-.23 0-.46.04-.7L9 16.9V5l6 2.1v7.46c1.07-.96 2.47-1.56 4-1.56.7 0 1.37.13 2 .36V3.5a.5.5 0 00-.5-.5h-.16L15 5.1 9 3m9 12v3h-3v2h3v3h2v-3h3v-2h-3v-3h-2z"/></svg>

<?xml version="1.0" encoding="UTF-8"?><!DOCTYPE svg PUBLIC "-//W3C//DTD SVG 1.1//EN" "http://www.w3.org/Graphics/SVG/1.1/DTD/svg11.dtd"><svg xmlns="http://www.w3.org/2000/svg" xmlns:xlink="http://www.w3.org/1999/xlink" version="1.1" id="mdi-map-plus" width="24" height="24" viewBox="0 0 24 24"><path d="M9,3L3.36,4.9C3.16,4.97 3,5.15 3,5.38V20.5A0.5,0.5 0 0,0 3.5,21C3.55,21 3.6,21 3.66,20.97L9,18.9L13.16,20.36C13.06,19.92 13,19.46 13,19C13,18.77 13,18.54 13.04,18.3L9,16.9V5L15,7.1V14.56C16.07,13.6 17.47,13 19,13C19.7,13 20.37,13.13 21,13.36V3.5A0.5,0.5 0 0,0 20.5,3H20.34L15,5.1L9,3M18,15V18H15V20H18V23H20V20H23V18H20V15H18Z" /></svg>
